X: 1
T: Ille Bhig
R: reel, march
S: https://thesession.org/tunes/16690 2020-10-9
N: as played by Mike Vass and Mairearad Green.
Q: 1/4=104
M: 4/4
L: 1/8
K: D
|: "D"A,D DE FE EB, | A,D DE FA B2 | "Em7"B,B, DE FE ED | zB, A,B, "D"D2 D2 :|
|: "D/F#"d2 BA "Em7"B2 AF | "D/F#"zd BA FA "Em7"B2 | "D/F#"d2 BA B2 "Em7"AF | ED "D/F#" D/D/D EF "Em7"B2 :|
